X: 149
T: 149. Nicht so traurig, nicht so sehr
N: Derived from chor149.krn
C: Johann Sebastian Bach
%%abc-version 2.0
%%abcx-abcm2ps-target-version 5.9.1 (29 Sep 2008)
%%abc-creator hum2abc beta
%%abcx-conversion-date 2019/03/11 17:28:18
%%abc-edited-by Craig Stuart Sapp
%%humdrum-veritas 3625856601
%%humdrum-veritas-data 3702032510
%%
%%barnumbers 0
L: 1/4
M: C
%%staves [1 2 3 4]
V: 1 clef=treble
V: 2 clef=treble
V: 3 clef=treble-8
V: 4 clef=bass
K: Eb
[V:1] ed/c/ [I:setbarnb 1]| 
[V:2] GF | 
[V:3] c=B | 
[V:4] C,D, | 
[V:1] gf/e/de/f/ | 
[V:2] E/F/GAG/F/ | 
[V:3] ccc=B/c/ | 
[V:4] E,C,F,G,/A,/ | 
[V:1] !fermata!=B2c/d/e | 
[V:2] !fermata!G2GG | 
[V:3] !fermata!d2cc | 
[V:4] !fermata!G,2E,/D,/C, | 
[V:1] AGF_B | 
[V:2] F_B,B,F | 
[V:3] c/d/eed | 
[V:4] F,G,/A,/B,B,, | 
[V:1] !fermata!G2 :|]  
[V:2] !fermata!E2 :|]  
[V:3] !fermata!B2 :|]  
[V:4] !fermata!E,2 :|]  
[V:1] gB [I:setbarnb 5]| 
[V:2] EE | 
[V:3] BB | 
[V:4] E,G, | 
[V:1] =ABed/c/ | 
[V:2] FFGF | 
[V:3] cBB=A | 
[V:4] F,/E,/D,C,F, | 
[V:1] !fermata!d2de/f/ | 
[V:2] !fermata!F2FF | 
[V:3] !fermata!B2Bc | 
[V:4] !fermata!B,,2B,_A, | 
[V:1] =Bged3//c// | 
[V:2] GGGF3//=E// | 
[V:3] dcc3/=B/ | 
[V:4] G,/F,/E,/F,/G,G,, | 
[V:1] !fermata!c2 |]  
[V:2] !fermata!=E2 |]  
[V:3] !fermata!G2 |]  
[V:4] !fermata!C,2 |]  



